public/icons/logo-mobile.svg

<svg width="123" height="41" viewBox="0 0 123 41" fill="none" xmlns="http://www.w3.org/2000/svg">
<path fill-rule="evenodd" clip-rule="evenodd" d="M70.7078 27.8928C74.2893 27.8928 77.194 30.8221 77.194 34.4383C77.194 38.0528 74.2893 40.9821 70.7078 40.9821C67.126 40.9821 64.2213 38.0528 64.2213 34.4383C64.2213 30.8221 67.126 27.8928 70.7078 27.8928Z" fill="white"/>
<path fill-rule="evenodd" clip-rule="evenodd" d="M85.9631 27.8928C89.5449 27.8928 92.4494 30.8221 92.4494 34.4383C92.4494 38.0528 89.5449 40.9821 85.9631 40.9821C82.3813 40.9821 79.4769 38.0528 79.4769 34.4383C79.4769 30.8221 82.3813 27.8928 85.9631 27.8928Z" fill="white"/>
<path fill-rule="evenodd" clip-rule="evenodd" d="M101.22 27.9107C104.804 27.9107 107.707 30.8413 107.707 34.4553C107.707 38.0691 104.804 41 101.22 41C97.6375 41 94.7343 38.0691 94.7343 34.4553C94.7343 30.8413 97.6375 27.9107 101.22 27.9107Z" fill="white"/>
<path fill-rule="evenodd" clip-rule="evenodd" d="M116.476 27.8928C120.058 27.8928 122.963 30.8221 122.963 34.4383C122.963 38.0528 120.058 40.9821 116.476 40.9821C112.894 40.9821 109.99 38.0528 109.99 34.4383C109.99 30.8221 112.894 27.8928 116.476 27.8928Z" fill="white"/>
<path d="M72.17 31.795H69.24V37.3146C69.24 37.732 68.9846 37.9396 68.4781 37.9396C67.9695 37.9396 67.716 37.732 67.7125 37.3129V31.2283C67.7125 30.8074 67.9679 30.5978 68.483 30.5978H72.9333C73.447 30.5978 73.7022 30.8074 73.6989 31.2283V37.3129C73.6952 37.732 73.44 37.9396 72.9333 37.9396C72.4246 37.9396 72.1695 37.732 72.1695 37.3146V31.795H72.17Z" fill="#221F20"/>
<path d="M85.9412 32.1929H85.9199L84.9257 34.9734H86.9512L85.9412 32.1929ZM83.3423 37.9828C82.8707 37.9828 82.6365 37.8104 82.6365 37.4679C82.6365 37.3702 82.6647 37.2369 82.7227 37.07L84.9752 31.2926C85.0683 31.0424 85.1879 30.847 85.3409 30.7102C85.494 30.5737 85.7086 30.5042 85.9849 30.5042C86.2629 30.5042 86.4863 30.5788 86.6553 30.7262C86.8261 30.872 86.9477 31.0546 87.0213 31.2731L89.2896 37.0806C89.3229 37.171 89.3403 37.2706 89.3403 37.3754C89.3403 37.5778 89.2595 37.7306 89.0994 37.83C88.9391 37.9309 88.7492 37.9828 88.533 37.9828C88.1546 37.9828 87.9239 37.8443 87.8431 37.5672L87.2856 36.0314H84.5809L84.0422 37.5406C83.9318 37.8354 83.6976 37.9828 83.3423 37.9828Z" fill="#221F20"/>
<path d="M98.9008 31.4729C98.9008 31.0468 99.1911 30.8337 99.7717 30.8337H101.792C102.587 30.8337 103.189 31.0308 103.596 31.4265C104.006 31.8244 104.213 32.3501 104.213 33.005C104.213 34.0721 103.736 34.7824 102.786 35.1358C102.475 35.2495 102.123 35.3043 101.721 35.3008H100.43V37.5521C100.43 37.9657 100.175 38.1733 99.6662 38.1733C99.1594 38.1733 98.9042 37.9657 98.9005 37.5486V31.4729H98.9008ZM102.737 33.078C102.737 32.3645 102.359 32.0038 101.605 31.9967H100.43V34.1788H101.576C101.933 34.1788 102.218 34.0882 102.427 33.9071C102.633 33.7261 102.737 33.4493 102.737 33.078Z" fill="#221F20"/>
<path d="M113.763 31.3909C113.767 30.9718 114.022 30.7623 114.53 30.7623C115.037 30.7623 115.292 31.0093 115.292 31.4992V34.2032H115.308L117.749 31.3624C118.09 30.9612 118.438 30.762 118.797 30.762C119.035 30.762 119.205 30.8101 119.309 30.9061C119.412 31.0022 119.463 31.1173 119.463 31.2541C119.463 31.3892 119.405 31.5241 119.287 31.6533L116.844 34.3204L119.442 37.184C119.595 37.358 119.67 37.523 119.67 37.6793C119.67 37.8373 119.612 37.9651 119.491 38.0628C119.371 38.1589 119.183 38.2085 118.926 38.2085C118.667 38.2085 118.442 38.1304 118.249 37.9779C118.053 37.8232 117.853 37.6193 117.642 37.3637L115.308 34.6434H115.293V37.5838C115.293 37.999 115.037 38.2085 114.531 38.2085C114.022 38.2085 113.767 37.9602 113.764 37.4646L113.763 31.3909Z" fill="#221F20"/>
<path d="M7.36274 0L0 22.9068H6.81093L11.8056 4.74537H12.5192L17.5141 22.9068H24.3254L16.9628 0H7.36274Z" fill="white"/>
<path d="M43.6061 6.54517H37.5413L37.3135 8.607C36.2758 6.90514 34.492 6.02136 32.2544 6.02136C29.854 6.02136 28.0055 6.97033 26.7081 8.44313C25.5404 9.75206 24.5352 11.814 24.5352 14.7264C24.5352 17.6391 25.5406 19.701 26.7081 21.0089C28.0058 22.4826 29.854 23.4306 32.2544 23.4306C35.6597 23.4306 36.9246 21.5007 37.3135 20.7798L37.5413 22.9065H43.6061V6.54517ZM37.476 14.6287C37.476 15.4139 37.4113 16.5918 36.8277 17.5086C36.2433 18.4246 35.4006 18.8504 34.2976 18.8504C33.2271 18.8504 32.3513 18.4248 31.735 17.4757C31.1514 16.5597 31.0867 15.4796 31.0867 14.6287C31.0867 13.8104 31.1517 12.7308 31.735 11.8142C32.3513 10.8654 33.2271 10.4399 34.2976 10.4399C35.4003 10.4399 36.2433 10.8654 36.8277 11.7817C37.3463 12.5991 37.476 13.6139 37.476 14.6287Z" fill="white"/>
<path d="M58.0542 14.6287C58.0542 16.2647 57.6653 17.0827 57.4384 17.4755C57.049 18.0973 56.3032 18.8501 54.8758 18.8501C53.8056 18.8501 52.9301 18.4246 52.3137 17.4755C51.7299 16.5595 51.6649 15.4793 51.6649 14.6287C51.6649 13.8102 51.7299 12.7305 52.3137 11.8142C52.9301 10.8651 53.8053 10.4396 54.8758 10.4396C56.3029 10.4396 57.049 11.1922 57.4384 11.8142C57.6978 12.2067 58.0542 13.025 58.0542 14.6287ZM64.1846 6.54517H58.152L57.8923 8.607C56.8546 6.90514 55.0708 6.02136 52.8323 6.02136C50.4322 6.02136 48.584 6.97033 47.2866 8.44313C46.1191 9.75206 45.1134 11.814 45.1134 14.7264C45.1134 17.6391 46.1191 19.701 47.2866 21.0089C48.6165 22.4826 50.4002 23.4306 52.8323 23.4306C54.1947 23.4306 56.5299 23.1038 57.8923 20.7798V22.9065C57.8923 23.496 57.9197 25.2148 57.4059 25.8399C56.8178 26.5553 55.816 26.6584 55.103 26.6584H53.9681V30.8804H55.6546C57.8925 30.8804 60.196 30.8465 62.0434 29.2772C63.8924 27.7061 64.1846 24.7727 64.1846 22.9068V6.54517Z" fill="white"/>
<path d="M65.6916 14.7264C65.6916 17.8682 67.0537 19.9952 68.6425 21.3373C70.1663 22.6139 72.3078 23.562 75.3554 23.562C78.4047 23.562 80.5448 22.6139 82.0702 21.3373C83.659 19.9949 85.0209 17.8679 85.0209 14.7264C85.0209 11.5852 83.659 9.45778 82.0702 8.11612C80.5445 6.83943 78.4047 5.89044 75.3554 5.89044C72.3075 5.89044 70.166 6.83943 68.6425 8.11612C67.0537 9.45802 65.6916 11.5849 65.6916 14.7264ZM72.2425 14.6287C72.2425 13.5159 72.3392 12.5011 72.7619 11.6503C73.4427 10.3087 74.6091 10.0471 75.3554 10.0471C76.1015 10.0471 77.27 10.3087 77.9508 11.6503C78.3716 12.5011 78.4699 13.5159 78.4699 14.6287C78.4699 15.774 78.3716 16.8214 77.9508 17.6394C77.27 18.9812 76.1015 19.2426 75.3554 19.2426C74.6091 19.2426 73.4427 18.9809 72.7619 17.6394C72.3395 16.8214 72.2425 15.7737 72.2425 14.6287Z" fill="white"/>
<path d="M86.0108 11.9119H92.3034V11.5195C92.3034 11.0611 92.3351 10.4067 92.8856 9.88319C93.3083 9.49028 93.7936 9.39235 94.2811 9.39235C94.6049 9.39235 95.1891 9.4253 95.6115 9.75229C95.8384 9.94833 96.1306 10.2762 96.1306 10.8323C96.1306 11.4538 95.8051 11.8468 95.6115 12.0105C95.1891 12.3378 94.443 12.5337 92.9842 12.861C90.2921 13.4828 89.1569 13.9084 88.4428 14.268C86.6582 15.2176 85.8155 16.5595 85.8805 18.4902C85.9458 20.1265 86.6918 21.73 88.8967 22.7437C89.5461 23.0384 91.0699 23.6279 94.2811 23.6279C96.2923 23.6279 98.6274 23.3649 100.378 22.1881C102.455 20.7801 102.941 18.6536 103.071 17.4103H96.5845V17.8028C96.5845 18.4574 96.2923 19.0138 95.9354 19.3408C95.4479 19.7992 94.8654 19.8972 94.2811 19.8972C93.7305 19.8972 93.2748 19.8315 92.9509 19.6024C92.4656 19.2754 92.3668 18.7844 92.3668 18.4246C92.3668 17.5737 92.8542 17.2795 93.535 17.0173C94.2811 16.7554 95.221 16.5918 96.7131 16.199C98.7244 15.6427 99.9243 15.2499 100.767 14.5959C101.741 13.8432 102.52 12.5991 102.455 10.9303C102.421 9.98144 102.097 8.05069 99.8274 6.83966C98.2702 6.02159 96.0001 5.79277 94.2811 5.82551C91.5235 5.85797 89.9664 6.44724 89.0584 6.93832C87.0157 8.05045 86.0763 9.94833 86.0108 11.9119Z" fill="white"/>
<path d="M123 6.54517H116.935L116.708 8.607C115.669 6.90514 113.887 6.02136 111.649 6.02136C109.248 6.02136 107.399 6.97033 106.102 8.44313C104.934 9.75206 103.929 11.814 103.929 14.7264C103.929 17.6391 104.934 19.701 106.102 21.0089C107.399 22.4826 109.248 23.4306 111.649 23.4306C115.054 23.4306 116.318 21.5007 116.708 20.7798L116.935 22.9065H123V6.54517ZM116.869 14.6287C116.869 15.4139 116.804 16.5918 116.222 17.5086C115.637 18.4246 114.795 18.8504 113.692 18.8504C112.621 18.8504 111.745 18.4248 111.129 17.4757C110.545 16.5597 110.48 15.4796 110.48 14.6287C110.48 13.8104 110.545 12.7308 111.129 11.8142C111.745 10.8654 112.621 10.4399 113.692 10.4399C114.795 10.4399 115.638 10.8654 116.222 11.7817C116.741 12.5991 116.869 13.6139 116.869 14.6287Z" fill="white"/>
</svg>

<svg xmlns="http://www.w3.org/2000/svg" width="123" height="41" fill="none"><path fill="#fff" fill-rule="evenodd" d="M70.708 27.893c3.581 0 6.486 2.93 6.486 6.545 0 3.615-2.905 6.544-6.486 6.544-3.582 0-6.487-2.93-6.487-6.544 0-3.616 2.905-6.545 6.487-6.545ZM85.963 27.893c3.582 0 6.486 2.93 6.486 6.545 0 3.615-2.904 6.544-6.486 6.544s-6.486-2.93-6.486-6.544c0-3.616 2.904-6.545 6.486-6.545ZM101.22 27.91c3.584 0 6.487 2.931 6.487 6.545S104.804 41 101.22 41c-3.582 0-6.486-2.93-6.486-6.545 0-3.614 2.904-6.544 6.486-6.544ZM116.476 27.893c3.582 0 6.487 2.93 6.487 6.545 0 3.615-2.905 6.544-6.487 6.544-3.582 0-6.486-2.93-6.486-6.544 0-3.616 2.904-6.545 6.486-6.545Z" clip-rule="evenodd"/><path fill="#221F20" d="M72.17 31.795h-2.93v5.52c0 .417-.255.625-.762.625-.508 0-.762-.208-.765-.627v-6.085c0-.42.255-.63.77-.63h4.45c.514 0 .77.21.766.63v6.085c-.004.419-.259.627-.766.627-.508 0-.764-.208-.764-.625v-5.52h.001ZM85.941 32.193h-.021l-.994 2.78h2.025l-1.01-2.78Zm-2.599 5.79c-.471 0-.706-.173-.706-.515 0-.098.029-.231.087-.398l2.252-5.777c.093-.25.213-.446.366-.583.153-.136.368-.206.644-.206.278 0 .501.075.67.222.171.146.293.329.366.547l2.269 5.808c.033.09.05.19.05.294a.5.5 0 0 1-.24.455c-.16.1-.35.153-.567.153-.378 0-.61-.139-.69-.416l-.557-1.536H84.58l-.539 1.51c-.11.294-.344.442-.7.442ZM98.9 31.473c0-.426.291-.64.872-.64h2.02c.795 0 1.397.198 1.804.594.41.397.617.923.617 1.578 0 1.067-.477 1.777-1.427 2.13a3 3 0 0 1-1.065.166h-1.291v2.251c0 .414-.255.621-.764.621-.507 0-.762-.207-.766-.624v-6.076Zm3.837 1.605c0-.714-.378-1.074-1.132-1.081h-1.175v2.182h1.146c.357 0 .642-.09.851-.272.206-.18.31-.458.31-.829ZM113.763 31.39c.004-.418.259-.628.767-.628.507 0 .762.247.762.737v2.704h.016l2.441-2.84c.341-.402.689-.601 1.048-.601.238 0 .408.048.512.144a.457.457 0 0 1 .154.348c0 .135-.058.27-.176.4l-2.443 2.666 2.598 2.864c.153.174.228.339.228.495a.467.467 0 0 1-.179.384c-.12.096-.308.145-.565.145a1.06 1.06 0 0 1-.677-.23 4.115 4.115 0 0 1-.607-.614l-2.334-2.72h-.015v2.94c0 .415-.256.624-.762.624-.509 0-.764-.248-.767-.743l-.001-6.074Z"/><path fill="#fff" d="M7.363 0 0 22.907h6.81l4.996-18.162h.713l4.995 18.162h6.811L16.963 0h-9.6ZM43.606 6.545h-6.065l-.227 2.062c-1.038-1.702-2.822-2.586-5.06-2.586-2.4 0-4.248.95-5.546 2.422-1.168 1.31-2.173 3.371-2.173 6.283 0 2.913 1.006 4.975 2.173 6.283 1.298 1.474 3.146 2.422 5.546 2.422 3.406 0 4.67-1.93 5.06-2.651l.227 2.127h6.065V6.545Zm-6.13 8.084c0 .785-.065 1.963-.648 2.88-.585.916-1.427 1.341-2.53 1.341-1.07 0-1.947-.425-2.563-1.374-.584-.916-.648-1.996-.648-2.847 0-.819.065-1.898.648-2.815.616-.949 1.492-1.374 2.563-1.374 1.102 0 1.945.425 2.53 1.342.518.817.648 1.832.648 2.847ZM58.054 14.629c0 1.636-.389 2.454-.616 2.847-.389.621-1.135 1.374-2.562 1.374-1.07 0-1.946-.425-2.562-1.375-.584-.916-.65-1.996-.65-2.846 0-.819.066-1.899.65-2.815.616-.949 1.491-1.374 2.562-1.374 1.427 0 2.173.752 2.562 1.374.26.393.616 1.211.616 2.815Zm6.13-8.084h-6.032l-.26 2.062c-1.037-1.702-2.821-2.586-5.06-2.586-2.4 0-4.248.95-5.545 2.422-1.168 1.31-2.174 3.371-2.174 6.283 0 2.913 1.006 4.975 2.174 6.283 1.33 1.474 3.113 2.422 5.545 2.422 1.363 0 3.698-.327 5.06-2.651v2.127c0 .589.028 2.308-.486 2.933-.588.715-1.59.818-2.303.818h-1.135v4.222h1.687c2.237 0 4.541-.034 6.388-1.603 1.85-1.57 2.142-4.504 2.142-6.37V6.545ZM65.692 14.726c0 3.142 1.362 5.27 2.95 6.611 1.524 1.277 3.666 2.225 6.713 2.225 3.05 0 5.19-.948 6.715-2.225 1.589-1.342 2.95-3.47 2.95-6.61 0-3.142-1.361-5.27-2.95-6.61-1.525-1.278-3.665-2.227-6.715-2.227-3.047 0-5.189.95-6.713 2.226-1.588 1.342-2.95 3.469-2.95 6.61Zm6.55-.097c0-1.113.097-2.128.52-2.979.68-1.341 1.847-1.603 2.593-1.603s1.915.262 2.596 1.603c.42.851.519 1.866.519 2.979 0 1.145-.098 2.192-.52 3.01-.68 1.342-1.849 1.604-2.595 1.604-.746 0-1.912-.262-2.593-1.604-.422-.818-.52-1.865-.52-3.01ZM86.01 11.912h6.293v-.393c0-.458.032-1.112.583-1.636.422-.393.908-.49 1.395-.49.324 0 .908.032 1.33.36.227.195.52.523.52 1.08a1.54 1.54 0 0 1-.52 1.178c-.422.327-1.168.523-2.627.85-2.692.622-3.827 1.047-4.541 1.407-1.785.95-2.627 2.291-2.563 4.222.066 1.637.812 3.24 3.017 4.254.65.294 2.173.884 5.384.884 2.011 0 4.346-.263 6.097-1.44 2.077-1.408 2.563-3.534 2.693-4.778h-6.486v.393c0 .654-.293 1.21-.65 1.538-.487.458-1.07.556-1.654.556-.55 0-1.006-.066-1.33-.295-.485-.327-.584-.818-.584-1.177 0-.851.487-1.146 1.168-1.408.746-.262 1.686-.425 3.178-.818 2.011-.556 3.211-.95 4.054-1.603.974-.753 1.753-1.997 1.688-3.666-.034-.949-.358-2.88-2.628-4.09C98.27 6.022 96 5.793 94.281 5.826c-2.758.032-4.315.621-5.223 1.112-2.042 1.112-2.982 3.01-3.047 4.974ZM123 6.545h-6.065l-.227 2.062c-1.039-1.702-2.821-2.586-5.059-2.586-2.401 0-4.25.95-5.547 2.422-1.168 1.31-2.173 3.371-2.173 6.283 0 2.913 1.005 4.975 2.173 6.283 1.297 1.474 3.146 2.422 5.547 2.422 3.405 0 4.669-1.93 5.059-2.651l.227 2.127H123V6.545Zm-6.131 8.084c0 .785-.065 1.963-.647 2.88-.585.916-1.427 1.341-2.53 1.341-1.071 0-1.947-.425-2.563-1.374-.584-.916-.649-1.996-.649-2.847 0-.819.065-1.898.649-2.815.616-.949 1.492-1.374 2.563-1.374 1.103 0 1.946.425 2.53 1.342.519.817.647 1.832.647 2.847Z"/></svg>
